epam-assets/icon-sources/18/content-edit_undo.svg

<svg width="18" height="18" viewBox="0 0 18 18" fill="none" xmlns="http://www.w3.org/2000/svg">
<g id="18/content-edit_undo">
<path id="icon" d="M16.875 10.25C16.875 9.3125 16.697 8.43425 16.341 7.61525C15.9845 6.79675 15.503 6.08425 14.8965 5.47775C14.2905 4.87175 13.578 4.3905 12.759 4.034C11.9405 3.678 11.0625 3.5 10.125 3.5C9.1875 3.5 8.30925 3.678 7.49025 4.034C6.67175 4.3905 5.95925 4.87175 5.35275 5.47775C4.74675 6.08425 4.26575 6.79675 3.90975 7.61525C3.55325 8.43425 3.375 9.3125 3.375 10.25V10.3625L2.2125 9.2L1.125 10.25L4.125 13.25L7.125 10.25L6.0375 9.2L4.875 10.3625V10.25C4.875 8.7875 5.38425 7.547 6.40275 6.5285C7.42175 5.5095 8.6625 5 10.125 5C11.5875 5 12.828 5.5095 13.8465 6.5285C14.8655 7.547 15.375 8.7875 15.375 10.25H16.875Z" fill="#6C6F80"/>
</g>
</svg>

<svg xmlns="http://www.w3.org/2000/svg" width="18" height="18" fill="none" viewBox="0 0 18 18">
  <path fill="#6C6F80" d="M16.875 10.25c0-.938-.178-1.816-.534-2.635a6.869 6.869 0 0 0-1.445-2.137 6.864 6.864 0 0 0-2.137-1.444 6.532 6.532 0 0 0-2.634-.534c-.938 0-1.816.178-2.635.534a6.875 6.875 0 0 0-2.137 1.444A6.865 6.865 0 0 0 3.91 7.615a6.53 6.53 0 0 0-.535 2.635v.113L2.212 9.2l-1.087 1.05 3 3 3-3L6.037 9.2l-1.162 1.163v-.113c0-1.463.51-2.703 1.528-3.721C7.422 5.508 8.663 5 10.125 5c1.463 0 2.703.51 3.722 1.529 1.019 1.018 1.528 2.258 1.528 3.721h1.5Z"/>
</svg>
